X:1
T:The Conqueror
T:The Conqueror
T:Grant Colfax Tullar
T:Salathial Cleaver Kirk, 1906
T:Public Domain Courtesy of the Cyber Hymnal™
T:Public Domain Courtesy of the Cyber Hymnal™
C:Grant Colfax Tullar
Z:Public Domain
Z:Courtesy of the Cyber Hymnal™
%%score ( 1 2 ) ( 3 4 )
L:1/8
Q:1/4=110
M:4/4
K:C
V:1 treble 
V:2 treble 
V:3 bass 
V:4 bass 
V:1
 (GA) (GA) [EG]2 [Ec]2 | [Fc]2 [FB]2 [FB]4 | (GA) (GA) [FG]2 [Fd]2 | [Ed]2 [Ec]2 [Ec]4 | %4
w: 1.~O * Thou * Lamb of|Cal- va- ry,|Thy * tri- * umph- ant|day is come!|
w: 2.~All * in * vain the|wards of death|Guard * the * ston- y|ten- e- ment;|
w: 3.~O * the * glo- rious|vic- to- ry!|Je- * sus * slain a-|wakes a- gain,|
 (GA) (GA) [EG]2 [Gc]2 | [GB]2 [^Fc]2 [Gd]4 | (de) (de) [=Fd]2 [FA]2 | [Fd]6 z2 | %8
w: Day * of * glo- rious|vic- to- ry,|Over * the * boast- ing|tomb!|
w: But * a * whis- per,|yea, a breath,|Lo! * its * bars are|rent!|
w: Tri- * umphs * o- ver|Cal- va- ry,|And * the * wiles of|men!|
 (GA) (GA) [EG]2 [Ec]2 | [Fc]2 [FB]2 [FB]4 | (GA) (GA) [FG]2 [Fd]2 | [Ed]2 [Ec]2 [Ec]4 | %12
w: All * the * shame and|a- go- ny|Of * the * cru- el|cross He bore;|
w: Where * is * now the|taunt- ing reed,|And * the * crown of|thorns He wore?|
w: Je- * sus * now the|ris- en King|Is * a- * live for-|ev- er- more!|
 (e^d) (ef) [Ge]2 A2 | [Ad]2 [Ae]2 [Af]2 (ed) | [Gc]2 [Gc]2 [Ge]2 [Fd]2 | [Ec]6 ||"^Refrain" G2 | %17
w: Died * the * Man of|Ga- li- lee, But *|rose the Con- quer-|ror!|O|
w: Ye * have * made a|King, in- deed, And *|crowned a Con- quer-|or!||
w: Earth * and * Heav- en|tri- bute sing— And *|hail Him Con- quer-|or!||
 (z2 e)G ^FG x2 | (z [Fd]2) ([Bd] [Ac]) x3 | [GB]4- [GB][FA][DF][FA] | [EG]6 (EG) | %21
w: * death, where is|* thy *|* * sting? O grave,|* thy *|
w: ||||
w: ||||
 c2 [G=c]2 [A^c]2 [Ac]2 | [Ad]2 [Ae]2 !fermata![Af]2 (ed) | [Gc]2 [Gc]2 [Ge]2 [Fd]2 | [Ec]6 z2 |] %25
w: vic- to- ry? The|ris- en Lord, the *|Sav- ior- King, Has|con-|
w: ||||
w: ||||
V:2
 E2 E2 x4 | x8 | F2 F2 x4 | x8 | E2 E2 x4 | x8 | ^F2 F2 x4 | x8 | E2 E2 x4 | x8 | F2 F2 x4 | x8 | %12
 G2 G2 x A2 x | x6 A2 | x8 | x6 || G2 | (e4- G2 G2) | A4 FFG x | x8 | x6 EG | ^c2 x6 | x6 A2 | x8 | %24
 x8 |] %25
V:3
 [C,G,]2 [G,,G,]2 [C,G,]2 [G,,G,]2 | [D,G,]2 [G,,G,]2 G,4 | [B,,G,]2 [G,,G,]2 [B,,G,]2 [G,,G,]2 | %3
w: ~ ~ ~ ~|~ ~ ~|~ ~ ~ ~|
 [C,G,]2 [G,,G,]2 G,4 | [C,G,]2 [G,,G,]2 [C,G,]2 [E,C]2 | [D,D]2 [D,D]2 [G,B,]4 | %6
w: ~ ~ ~|~ ~ ~ ~|~ ~ ~|
 [A,C]2 [D,C]2 [A,C]2 [D,C]2 | B,6 D,2 | [C,G,]2 [G,,G,]2 [C,G,]2 [G,,G,]2 | [D,G,]2 [G,,G,]2 G,4 | %10
w: ~ ~ ~ ~|~ ~|* ~ ~ ~|~ ~ ~|
 [B,,G,]2 [G,,G,]2 [B,,G,]2 [G,,G,]2 | [C,G,]2 [G,,G,]2 G,4 | [A,^C]2 [E,C]2 [A,C]2 C2 | %13
w: ~ ~ ~ ~|~ ~ ~|~ ~ ~ ~|
 [F,D]2 [E,^C]2 [D,D]2 ([E,=C][F,D]) | [G,E]2 [G,E]2 [G,C]2 [G,B,]2 | [C,C]6 || z2 | %17
w: ~ ~ ~ ~ *|~ ~ ~ ~|~||
 z2 [C,C]2 [C,C]2 z2 | z [F,C][F,C][E,^C] [D,D]2 z2 | (G,,2 [F,G,B,][F,G,B,] [F,G,B,]2) [F,G,B,]2 | %20
w: O death,|where is thy sting?||
 (C,2 [E,G,C][E,G,C] [E,G,C]2) E,G, | C2 E2 [A,E]2 E2 | %22
w: ||
 [F,D]2 [E,^C]2 !fermata![D,D]2 ([E,=C][F,D]) | [G,E]2 [G,E]2 [G,C]2 [G,B,]2 | [C,C]6 z2 |] %25
w: |||
V:4
 x8 | x4 (D,2 G,,2) | x8 | x4 (C,2 G,,2) | x8 | x8 | x8 | G,2 F,2 E,2 x2 | x8 | x4 (D,2 G,,2) | %10
 x8 | x4 (C,2 G,,2) | x6 (A,G,) | x8 | x8 | x6 || x2 | x8 | x8 | x8 | x6 (E,G,) | %21
 C2 (CB,) x (A,G,) x | x8 | x8 | x8 |] %25

